X: 1
T: High Road To Linton, The
M: 4/4
L: 1/8
R: reel
K: Amix
|:ceef a2 ae|fgfe a2 ae|ceef a2 ae|faec B2 A2:|
|:cdeg fddf|ecce fBBf|cdeg fddf|e/^g/a ec B2 A2:|
|: {^g}a2 a2 efa2|efae faef|{^g}a2 a2 efae|faec B2 A2:|
|:cdec defd|cdec BcdB|cdec def^g|afec B2 A2:|
